calendar-month-outline.svg

<svg fill="currentColor" viewBox="0 0 24 24"><path d="M7 11h2v2H7zm14-6v14c0 1.11-.89 2-2 2H5a2 2 0 0 1-2-2V5c0-1.1.9-2 2-2h1V1h2v2h8V1h2v2h1a2 2 0 0 1 2 2M5 7h14V5H5zm14 12V9H5v10zm-4-6v-2h2v2zm-4 0v-2h2v2zm-4 2h2v2H7zm8 2v-2h2v2zm-4 0v-2h2v2z"/></svg>

<svg  viewBox="0 0 24 24" fill="currentColor"><path  d="M7 11H9V13H7V11M21 5V19C21 20.11 20.11 21 19 21H5C3.89 21 3 20.1 3 19V5C3 3.9 3.9 3 5 3H6V1H8V3H16V1H18V3H19C20.11 3 21 3.9 21 5M5 7H19V5H5V7M19 19V9H5V19H19M15 13V11H17V13H15M11 13V11H13V13H11M7 15H9V17H7V15M15 17V15H17V17H15M11 17V15H13V17H11Z"/></svg>
